X:1
T:Title
%%score { ( 1 3 ) | ( 2 4 ) }
L:1/8
M:3/2
K:Eb
V:1 treble nm="Grand Piano"
V:3 treble 
V:2 bass 
V:4 bass 
V:1
 z4 z4[Q:1/4=108] G2 G2 | G4 G4 F2 F2 | A4 G4 B2 B2 | B4 G4 F2 =A2 |[M:4/4] [DB]8 | %5
[M:2/4] [EG]2 [FG]2 |[M:6/4] [EG]4 [Ge]2- [Ge]2 [Gd]2 [CGc]2 | %7
 [_DGB]4 [CFA]2- [CFA]2 [B,CG]2 [A,CF]2 | [G,B,E]4 [EG]2- [EG]2 [DG]2 [DF]2 |[M:4/4] E8 | %10
[M:2/4] E2 E2 |[M:6/4] B4 G2- G2 F2 E2 | [CF]4 [CE]2- [CE]2 c2 c2 | c4 =A2- A2 B2 c2 | %14
[M:4/4] d8[K:bass] |[M:2/4][K:treble] [Ec]2 [FB]2 |[M:6/4] [Ee]4 [B,GB]2- [B,GB]2 [EGc]2 [_DEG]2 | %17
 [_DEB]4 [CEA]2- [CEA]2 [B,CG]2 [A,CF]2 | z4 G2- G2 z2 z2 |[M:4/4] [G,E]8 |] %20
V:2
 z4 z4 [E,B,E]2 [E,B,E]2 | [E,B,E]4 [E,B,E]4 [E,A,E]2 [E,A,E]2 | %2
 [E,CE]4 [E,B,E]4 [E,G,E]2 [F,A,D]2 | [G,B,E]4 [E,B,E]4 [F,=A,E]2 [F,CE]2 |[M:4/4] [B,,B,]8 | %5
[M:2/4] [E,B,]2 [D,=B,]2 |[M:6/4] [C,C]4 [C,C]2- [C,C]2 [D,=B,]2 E,2 | =E,4 F,2- F,2 A,,2 A,,2 | %8
 B,,4 [B,,B,]2- [B,,B,]2 [B,,B,]2 [B,,A,]2 |[M:4/4] [E,G,]8 |[M:2/4] [E,G,]2 [E,G,]2 | %11
[M:6/4] [E,G,_D]4 [E,B,D]2- [E,B,D]2 [E,A,D]2 [E,G,D]2 | %12
 [A,,A,]4 [A,,A,]2- [A,,A,]2[K:treble] [A,CE]2 [G,B,=E]2 | %13
 [F,=A,F]4 [F,EF]2- [F,EF]2 [G,DF]2 [A,CF]2 |[M:4/4] [B,F]8 |[M:2/4][K:bass] [C,B,]2 [D,A,]2 | %16
[M:6/4] [E,G,]4 E,2- E,2 E,2 E,2 | A,4 A,2- A,2 A,,2 A,,2 | B,,2 .B,,4 .E4 D2 |[M:4/4] E,8 |] %20
V:3
 x12 | x12 | x12 | x12 |[M:4/4] x8 |[M:2/4] x4 |[M:6/4] x12 | x12 | x12 |[M:4/4] x8 |[M:2/4] x4 | %11
[M:6/4] x12 | x12 | x12 |[M:4/4] z4[K:bass] B,,4 |[M:2/4][K:treble] x4 |[M:6/4] x12 | x12 | %18
 [G,B,E]2 [A,B,F]2 B,2 z2 .[A,CF]4 |[M:4/4] x8 |] %20
V:4
 x12 | x12 | x12 | x12 |[M:4/4] x8 |[M:2/4] x4 |[M:6/4] x12 | x12 | x12 |[M:4/4] x8 |[M:2/4] x4 | %11
[M:6/4] x12 | x8[K:treble] x4 | x12 |[M:4/4] x8 |[M:2/4][K:bass] x4 |[M:6/4] x12 | x12 | %18
 z4 B,,2- B,,2 B,,4 |[M:4/4] x8 |] %20

